X:15043
T:Scots Wha Hae
M:2/4
L:1/8
K:EMix
E|E2 E>C|E>F A>A|F2  F>E|F>G AB |c2  B>A|A>B c>B|A>F F>E|E3||
c|c2 c>B|c>d e>c|c<B B>A|B>c d>f|e>c B>A|A>B c>B|A>F F>E|E3|]


